svgs/sharp-thin/square-small.svg

<svg xmlns="http://www.w3.org/2000/svg" viewBox="0 0 320 512"><!--! Font Awesome Pro 6.6.0 by @fontawesome - https://fontawesome.com License - https://fontawesome.com/license (Commercial License) Copyright 2024 Fonticons, Inc. --><path d="M304 112l0 288L16 400l0-288 288 0zM16 96L0 96l0 16L0 400l0 16 16 0 288 0 16 0 0-16 0-288 0-16-16 0L16 96z"/></svg>

<svg xmlns="http://www.w3.org/2000/svg" viewBox="0 0 320 512"><!--! Font Awesome Pro 6.5.2 by @fontawesome - https://fontawesome.com License - https://fontawesome.com/license (Commercial License) Copyright 2024 Fonticons, Inc. --><path d="M304 112V400H16V112H304zM16 96H0v16V400v16H16 304h16V400 112 96H304 16z"/></svg>
